!! 00000] TT[00
!! NN
!!!OTL: Cai hua diao
!!!ARE: Asia, China,ÿQinghai, Osten
!! Ethnic Group: Han
!! I, 262
!!!SCT: C0805
!!!YEM: Copyright 1995, estate of Helmut Schaffrath.
**kern
*ICvox
*Ivox
*M2/4
*k[b-]
*F:
{8cc
8cc
8.b-
16cc
=1
8ff
16ee
16dd
4cc
=2
8cc
8cc
8.b-
16cc
=3
4ff
16.cc
32ff
16b-
16a}
=4
{8g
4b-
8cc
=5
16g
16f
16e
16d
4c
=6
8.b-
16g
8cc
8cc
=7
2f}
=8
{16g
16cc
16f
16g
8cc
8b-
=9
8g
4cc
16b-
16a
=10
16g
16cc
16g
16f
16e
16d
8c
=11
2f}
=12
{8.f
16g
8.cc
16cc
=13
8.ff
16ff
8.a
16g
=14
8a
4a
8cc
=15
8.a
16g
16a
16cc
8d
=16
2c}
=17
{8.f
16g
8.cc
16cc
=18
8.ff
16ff
8.a
16g
=19
8a
4a
8cc
=20
16a
16cc
16a
16g
8a
8d
=21
2c}
==
!!!AGN: Xiaodiao. Siji huahui
!! Typisch fuer diese Provinz. +++BEREITS CODIERT+++ als cai Xiao?
!!    Eintaktiges Zwischenspiel in Zeile 263: 5_+1_7_6_5_6_4__ In der 3.
!!    Strophe lautet die Zeile 266 folgendermassen: 3371__.2_5__.5_
!!    +1___3__.2_  3__3___5__  3__.2_3__-6__  5____  ^____ //
!!!ONB: ESAC (Essen Associative Code) Database: CHINA
!!!AMT: simple duple
!!!AIN: vox
!!!EED: Helmut Schaffrath
!!!EEV: 1.0
*-
